packages/tokens/icons/backup/size16Px.svg

<svg viewBox="0 0 16 16" fill="none" xmlns="http://www.w3.org/2000/svg" width="1em" height="1em"><path d="M13.2431 9.71474L12.7677 9.55973L13.2431 9.71474ZM9.86794 3.05828L9.38762 3.19718C9.35054 3.06893 9.36628 2.93118 9.43134 2.81461C9.4964 2.69803 9.60538 2.61232 9.734 2.57656L9.86794 3.05828ZM11.5587 2.06921C11.8247 1.99523 12.1004 2.15094 12.1743 2.41699C12.2483 2.68304 12.0926 2.95868 11.8265 3.03266L11.5587 2.06921ZM10.8655 4.70805C10.9422 4.97332 10.7894 5.25056 10.5241 5.32727C10.2588 5.40398 9.98158 5.25112 9.90486 4.98585L10.8655 4.70805ZM13.2984 6.58885L12.818 6.72775L13.2984 6.58885ZM9.67591 13.7562C9.41064 13.8329 9.1334 13.6801 9.0567 13.4148C8.97999 13.1495 9.13285 12.8723 9.39812 12.7956L9.67591 13.7562ZM9.734 2.57656L11.5587 2.06921L11.8265 3.03266L10.0019 3.54001L9.734 2.57656ZM10.3483 2.91938L10.8655 4.70805L9.90486 4.98585L9.38762 3.19718L10.3483 2.91938ZM12.7677 9.55973C13.0694 8.63463 13.0845 7.64914 12.818 6.72775L13.7787 6.44994C14.1009 7.56421 14.0821 8.7545 13.7185 9.86975L12.7677 9.55973ZM12.818 6.72775C12.4021 5.28943 11.1598 3.99622 9.71568 3.53453L10.0202 2.58203C11.7848 3.14618 13.271 4.6945 13.7787 6.44994L12.818 6.72775ZM9.39812 12.7956C10.9776 12.3388 12.2649 11.102 12.7677 9.55973L13.7185 9.86975C13.1113 11.7317 11.5688 13.2089 9.67591 13.7562L9.39812 12.7956Z" fill="currentColor"/><path d="M2.75663 6.28526L3.23199 6.44027L2.75663 6.28526ZM6.1318 12.9417L6.61212 12.8028C6.6492 12.9311 6.63346 13.0688 6.5684 13.1854C6.50334 13.302 6.39436 13.3877 6.26574 13.4234L6.1318 12.9417ZM4.44108 13.9308C4.17503 14.0048 3.89939 13.8491 3.82541 13.583C3.75144 13.317 3.90714 13.0413 4.17319 12.9673L4.44108 13.9308ZM5.13424 11.2919C5.05752 11.0267 5.21039 10.7494 5.47566 10.6727C5.74093 10.596 6.01817 10.7489 6.09488 11.0142L5.13424 11.2919ZM2.70139 9.41115L3.1817 9.27225L2.70139 9.41115ZM6.32383 2.24378C6.5891 2.16708 6.86634 2.31994 6.94304 2.58521C7.01975 2.85049 6.86689 3.12772 6.60162 3.20443L6.32383 2.24378ZM6.26574 13.4234L4.44108 13.9308L4.17319 12.9673L5.99785 12.46L6.26574 13.4234ZM5.65148 13.0806L5.13424 11.2919L6.09488 11.0142L6.61212 12.8028L5.65148 13.0806ZM3.23199 6.44027C2.93034 7.36537 2.91525 8.35086 3.1817 9.27225L2.22107 9.55006C1.89883 8.43579 1.9176 7.2455 2.28126 6.13025L3.23199 6.44027ZM3.1817 9.27225C3.59765 10.7106 4.83997 12.0038 6.28406 12.4655L5.97954 13.418C4.21494 12.8538 2.72873 11.3055 2.22107 9.55006L3.1817 9.27225ZM6.60162 3.20443C5.02211 3.66117 3.73489 4.89802 3.23199 6.44027L2.28126 6.13025C2.88841 4.26828 4.43094 2.79114 6.32383 2.24378L6.60162 3.20443Z" fill="currentColor"/><path d="M7.52109 5.5V8.5H9.58034" stroke="currentColor" stroke-miterlimit="10" stroke-linecap="round" stroke-linejoin="round"/></svg>

<svg xmlns="http://www.w3.org/2000/svg" fill="none" viewBox="0 0 16 16" width="1em" height="1em"><path fill="currentColor" d="m13.243 9.715-.475-.155.475.155ZM9.868 3.058l-.48.14a.5.5 0 0 1 .346-.621l.134.481Zm1.69-.989a.5.5 0 1 1 .268.964l-.267-.964Zm-.692 2.639a.5.5 0 1 1-.961.278l.96-.278Zm2.432 1.88-.48.14.48-.14Zm-3.622 7.168a.5.5 0 1 1-.278-.96l.278.96Zm.058-11.18 1.825-.507.268.964-1.825.507-.268-.963Zm.614.343.518 1.789-.961.278-.517-1.789.96-.278Zm2.42 6.64a4.82 4.82 0 0 0 .05-2.831l.96-.278a5.816 5.816 0 0 1-.06 3.42l-.95-.31Zm.05-2.831c-.416-1.439-1.658-2.732-3.102-3.193l.304-.953c1.765.564 3.251 2.112 3.759 3.868l-.961.278Zm-3.42 6.068c1.58-.457 2.867-1.694 3.37-3.236l.95.31c-.607 1.862-2.15 3.339-4.042 3.886l-.278-.96ZM2.757 6.285l.475.155-.475-.155Zm3.375 6.657.48-.14a.5.5 0 0 1-.346.621l-.134-.481Zm-1.69.989a.5.5 0 1 1-.269-.964l.268.964Zm.692-2.64a.5.5 0 1 1 .96-.277l-.96.278Zm-2.433-1.88.48-.139-.48.14Zm3.623-7.167a.5.5 0 0 1 .278.96l-.278-.96Zm-.058 11.18-1.825.507-.268-.964 1.825-.507.268.963Zm-.615-.343-.517-1.79.96-.277.518 1.789-.96.278ZM3.232 6.44a4.815 4.815 0 0 0-.05 2.831l-.96.278a5.815 5.815 0 0 1 .06-3.42l.95.31Zm-.05 2.831c.416 1.439 1.658 2.732 3.102 3.194l-.304.952c-1.765-.564-3.251-2.112-3.759-3.868l.96-.278Zm3.42-6.068c-1.58.457-2.867 1.694-3.37 3.236l-.95-.31c.606-1.862 2.149-3.339 4.042-3.886l.278.96Z"/><path stroke="currentColor" stroke-linecap="round" stroke-linejoin="round" stroke-miterlimit="10" d="M7.521 5.5v3h2.06"/></svg>
